pro/src/icons/stroke-like.svg

<svg width="48" height="48" viewBox="0 0 48 48" xmlns="http://www.w3.org/2000/svg">
<path id="icon" fill-rule="evenodd" clip-rule="evenodd" d="M2 19.4087C2 13.1037 7.15567 8 13.5 8C18.1738 8 22.2024 10.7698 24 14.7492C25.7976 10.7698 29.8262 8 34.5 8C40.8443 8 46 13.1037 46 19.4087C46 25.9098 42.1198 30.2616 39.4969 33.2034C39.2753 33.4519 39.0626 33.6904 38.8621 33.9193C38.4981 34.3347 37.8663 34.3763 37.4509 34.0123C37.0356 33.6483 36.9939 33.0165 37.3579 32.6011C37.5575 32.3734 37.7637 32.141 37.9746 31.9035C40.6228 28.9198 44 25.1149 44 19.4087C44 14.2241 39.7557 10 34.5 10C29.2443 10 25 14.2241 25 19.4087C25 19.961 24.5523 20.4087 24 20.4087C23.4477 20.4087 23 19.961 23 19.4087C23 14.2241 18.7557 10 13.5 10C8.24433 10 4 14.2241 4 19.4087C4 24.3425 6.8036 29.2587 10.8304 33.3672C14.7505 37.3668 19.7035 40.4677 23.9385 41.9448C26.6958 41.0357 28.4621 39.9432 30.575 38.5335C31.0344 38.2269 31.6553 38.3509 31.9618 38.8103C32.2684 39.2697 32.1444 39.8906 31.685 40.1971C29.4361 41.6977 27.4343 42.939 24.2315 43.9518C24.0304 44.0154 23.8143 44.0138 23.6142 43.9471C18.9852 42.4063 13.6192 39.0698 9.40208 34.7671C5.1964 30.4761 2 25.0837 2 19.4087Z" fill="currentColor"/>
</svg>

<svg xmlns="http://www.w3.org/2000/svg" width="48" height="48"><path id="icon" fill="currentColor" fill-rule="evenodd" d="M2 19.409C2 13.104 7.156 8 13.5 8A11.51 11.51 0 0 1 24 14.75 11.51 11.51 0 0 1 34.5 8C40.844 8 46 13.104 46 19.409c0 6.5-3.88 10.853-6.503 13.794q-.333.373-.635.716a1 1 0 1 1-1.504-1.318q.3-.342.617-.697C40.623 28.92 44 25.114 44 19.409 44 14.224 39.756 10 34.5 10S25 14.224 25 19.409a1 1 0 1 1-2 0C23 14.224 18.756 10 13.5 10S4 14.224 4 19.409c0 4.934 2.804 9.85 6.83 13.958 3.92 4 8.873 7.1 13.109 8.578 2.757-.91 4.523-2.002 6.636-3.412a1 1 0 1 1 1.11 1.664c-2.249 1.5-4.25 2.742-7.453 3.755a1 1 0 0 1-.618-.005c-4.629-1.54-9.995-4.877-14.212-9.18C5.196 30.477 2 25.084 2 19.41" clip-rule="evenodd"/></svg>
